front/public/static/landing/logos/gray/assembled.svg

<svg fill="none" height="300" viewBox="0 0 600 300" width="600" xmlns="http://www.w3.org/2000/svg"><g fill="#364153"><path d="m108.014 116v68.424h-20.4876v-47.937h-37.4746v-20.487z"/><path d="m60.2807 141.443c-12.3053 0-22.2807 9.976-22.2807 22.281 0 12.306 9.9754 22.281 22.2807 22.281s22.2806-9.975 22.2806-22.28h-22.2801z"/><path d="m158.365 116-19.658 68.386h13.576l4.344-15.739h19.984l4.236 15.739h14.77l-19.657-68.386zm8.146 16.717h.434l6.517 24.423h-13.685z"/><path d="m196.64 168.538c.434 10.747 8.145 16.825 19.875 16.825 11.512 0 18.571-5.644 18.571-15.088 0-8.033-4.67-12.049-13.467-14.437l-6.842-1.845c-3.041-.978-4.779-1.955-4.779-4.668 0-2.714 2.173-4.234 5.431-4.234 4.887 0 7.059 3.04 7.059 7.382h11.73c-.109-9.878-6.3-17.151-18.898-17.151-10.752 0-17.812 6.296-17.812 15.197 0 8.467 4.779 12.592 12.816 14.654l7.385 1.845c3.258.869 4.779 1.846 4.779 4.342 0 2.823-2.389 4.234-5.973 4.234-4.562 0-7.711-2.28-8.037-7.056z"/><path d="m238.11 168.538c.435 10.747 8.146 16.825 19.875 16.825 11.513 0 18.573-5.644 18.573-15.088 0-8.033-4.671-12.049-13.468-14.437l-6.842-1.845c-3.041-.978-4.779-1.955-4.779-4.668 0-2.714 2.172-4.234 5.43-4.234 4.888 0 7.06 3.04 7.06 7.382h11.729c-.108-9.878-6.299-17.151-18.897-17.151-10.752 0-17.812 6.296-17.812 15.197 0 8.467 4.779 12.592 12.816 14.654l7.385 1.845c3.258.869 4.779 1.846 4.779 4.342 0 2.823-2.39 4.234-5.974 4.234-4.561 0-7.71-2.28-8.036-7.056z"/><path d="m301.628 185.363c11.947 0 18.572-6.947 19.441-18.345h-12.382c-.108 4.885-2.389 7.49-6.951 7.49-5.321 0-8.037-3.799-8.037-11.289h27.695v-3.799c0-14.763-6.516-24.098-20.309-24.098-12.707 0-20.744 9.335-20.744 24.098v1.845c0 14.763 8.037 24.098 21.287 24.098zm-7.929-29.851c0-6.079 2.716-9.335 7.386-9.335 4.779 0 7.276 3.256 7.276 9.335z"/><path d="m368.211 157.14c0-5.21 1.411-10.42 6.842-10.42 4.887 0 5.975 3.582 5.975 8.901v28.766h13.902v-33.325c0-8.793-3.913-15.74-14.664-15.74-6.625 0-10.969 3.148-13.576 6.947-2.063-3.691-5.974-6.947-12.816-6.947-5.756 0-10.426 2.822-12.49 6.839v-5.862h-13.902v48.088h13.902v-27.247c0-5.21 1.521-10.42 6.951-10.42 4.887 0 5.974 3.582 5.974 8.901v28.766h13.902z"/><path d="m432.649 162.568c0 7.707-2.716 11.723-7.927 11.723-5.107 0-7.823-4.016-7.823-9.986v-7.924c0-5.971 2.716-10.096 7.823-10.096 5.211 0 7.927 4.125 7.927 11.832zm-15.75 15.848c2.282 4.016 6.409 6.947 12.709 6.947 10.969 0 16.835-8.467 16.835-23.338v-3.365c0-14.871-5.866-23.338-16.835-23.338-6.3 0-10.427 2.931-12.709 6.947v-26.269h-13.902v68.386h12.383z"/><path d="m452.529 116v68.386h13.902v-68.386z"/><path d="m493.812 185.363c11.946 0 18.571-6.947 19.443-18.345h-12.383c-.109 4.885-2.391 7.49-6.951 7.49-5.32 0-8.036-3.799-8.036-11.289h27.695v-3.799c0-14.763-6.517-24.098-20.31-24.098-12.709 0-20.745 9.335-20.745 24.098v1.845c0 14.763 8.036 24.098 21.287 24.098zm-7.927-29.851c0-6.079 2.716-9.335 7.385-9.335 4.777 0 7.276 3.256 7.276 9.335z"/><path d="m531.29 158.117c0-7.707 2.712-11.832 7.927-11.832 4.995 0 7.819 4.125 7.819 10.096v7.924c0 5.97-2.824 9.986-7.819 9.986-5.215 0-7.927-4.016-7.927-11.723zm15.746 26.269h13.902v-68.386h-13.902v26.269c-2.39-4.016-6.408-6.947-12.708-6.947-10.969 0-16.832 8.467-16.832 23.338v3.365c0 14.871 5.863 23.338 16.832 23.338 6.3 0 10.318-2.931 12.708-6.947z"/></g></svg>

<svg width="600" height="300" viewBox="0 0 600 300" fill="none" xmlns="http://www.w3.org/2000/svg">
<path d="M108.014 116V184.424H87.5264V136.487H50.0518V116H108.014Z" fill="#364153"/>
<path d="M60.2807 141.443C47.9754 141.443 38 151.419 38 163.724C38 176.03 47.9754 186.005 60.2807 186.005C72.586 186.005 82.5613 176.03 82.5613 163.725H60.2812L60.2807 141.443Z" fill="#364153"/>
<path d="M158.365 116L138.707 184.386H152.283L156.627 168.647H176.611L180.847 184.386H195.617L175.96 116H158.365ZM166.511 132.717H166.945L173.462 157.14H159.777L166.511 132.717Z" fill="#364153"/>
<path d="M196.64 168.538C197.074 179.285 204.785 185.363 216.515 185.363C228.027 185.363 235.086 179.719 235.086 170.275C235.086 162.242 230.416 158.226 221.619 155.838L214.777 153.993C211.736 153.015 209.998 152.038 209.998 149.325C209.998 146.611 212.171 145.091 215.429 145.091C220.316 145.091 222.488 148.131 222.488 152.473H234.218C234.109 142.595 227.918 135.322 215.32 135.322C204.568 135.322 197.508 141.618 197.508 150.519C197.508 158.986 202.287 163.111 210.324 165.173L217.709 167.018C220.967 167.887 222.488 168.864 222.488 171.36C222.488 174.183 220.099 175.594 216.515 175.594C211.953 175.594 208.804 173.314 208.478 168.538H196.64Z" fill="#364153"/>
<path d="M238.11 168.538C238.545 179.285 246.256 185.363 257.985 185.363C269.498 185.363 276.558 179.719 276.558 170.275C276.558 162.242 271.887 158.226 263.09 155.838L256.248 153.993C253.207 153.015 251.469 152.038 251.469 149.325C251.469 146.611 253.641 145.091 256.899 145.091C261.787 145.091 263.959 148.131 263.959 152.473H275.688C275.58 142.595 269.389 135.322 256.791 135.322C246.039 135.322 238.979 141.618 238.979 150.519C238.979 158.986 243.758 163.111 251.795 165.173L259.18 167.018C262.438 167.887 263.959 168.864 263.959 171.36C263.959 174.183 261.569 175.594 257.985 175.594C253.424 175.594 250.275 173.314 249.949 168.538H238.11Z" fill="#364153"/>
<path d="M301.628 185.363C313.575 185.363 320.2 178.416 321.069 167.018H308.687C308.579 171.903 306.298 174.508 301.736 174.508C296.415 174.508 293.699 170.709 293.699 163.219H321.394V159.42C321.394 144.657 314.878 135.322 301.085 135.322C288.378 135.322 280.341 144.657 280.341 159.42V161.265C280.341 176.028 288.378 185.363 301.628 185.363ZM293.699 155.512C293.699 149.433 296.415 146.177 301.085 146.177C305.864 146.177 308.361 149.433 308.361 155.512H293.699Z" fill="#364153"/>
<path d="M368.211 157.14C368.211 151.93 369.622 146.72 375.053 146.72C379.94 146.72 381.028 150.302 381.028 155.621V184.387H394.93V151.062C394.93 142.269 391.017 135.322 380.266 135.322C373.641 135.322 369.297 138.47 366.69 142.269C364.627 138.578 360.716 135.322 353.874 135.322C348.118 135.322 343.448 138.144 341.384 142.161V136.299H327.482V184.387H341.384V157.14C341.384 151.93 342.905 146.72 348.335 146.72C353.222 146.72 354.309 150.302 354.309 155.621V184.387H368.211V157.14Z" fill="#364153"/>
<path d="M432.649 162.568C432.649 170.275 429.933 174.291 424.722 174.291C419.615 174.291 416.899 170.275 416.899 164.305V156.381C416.899 150.41 419.615 146.285 424.722 146.285C429.933 146.285 432.649 150.41 432.649 158.117V162.568ZM416.899 178.416C419.181 182.432 423.308 185.363 429.608 185.363C440.577 185.363 446.443 176.896 446.443 162.025V158.66C446.443 143.789 440.577 135.322 429.608 135.322C423.308 135.322 419.181 138.253 416.899 142.269V116H402.997V184.386H415.38L416.899 178.416Z" fill="#364153"/>
<path d="M452.529 116V184.386H466.431V116H452.529Z" fill="#364153"/>
<path d="M493.812 185.363C505.758 185.363 512.383 178.416 513.255 167.018H500.872C500.763 171.903 498.481 174.508 493.921 174.508C488.601 174.508 485.885 170.709 485.885 163.219H513.58V159.42C513.58 144.657 507.063 135.322 493.27 135.322C480.561 135.322 472.525 144.657 472.525 159.42V161.265C472.525 176.028 480.561 185.363 493.812 185.363ZM485.885 155.512C485.885 149.433 488.601 146.177 493.27 146.177C498.047 146.177 500.546 149.433 500.546 155.512H485.885Z" fill="#364153"/>
<path d="M531.29 158.117C531.29 150.41 534.002 146.285 539.217 146.285C544.212 146.285 547.036 150.41 547.036 156.381V164.305C547.036 170.275 544.212 174.291 539.217 174.291C534.002 174.291 531.29 170.275 531.29 162.568V158.117ZM547.036 184.386H560.938V116H547.036V142.269C544.646 138.253 540.628 135.322 534.328 135.322C523.359 135.322 517.496 143.789 517.496 158.66V162.025C517.496 176.896 523.359 185.363 534.328 185.363C540.628 185.363 544.646 182.432 547.036 178.416V184.386Z" fill="#364153"/>
</svg>
